packages/other/assets/technologies/power-bi.svg

<svg xmlns="http://www.w3.org/2000/svg" viewBox="0 0 39 39">
  <title>Power BI</title>
  <g fill="none" fill-rule="evenodd">
    <circle cx="19.5" cy="19.5" r="19.5" fill="#05192D"/>
    <path fill="#FFF" d="M14.8739735,24.5175523 C14.9237075,25.0391874 14.8950395,25.569374 14.897604,26.0958133 C14.8998938,26.5904491 14.9107015,27.0856615 14.8933908,27.5797208 C14.8630742,28.441298 14.3050097,29.0165475 13.5393083,28.9996369 C12.7837736,28.9830145 12.3029204,28.4201597 12.2978829,27.5424405 C12.2953183,27.0797043 12.2974249,26.616872 12.2976081,26.1541358 C12.2977913,25.6594999 12.292479,25.164672 12.298982,24.6701322 C12.3088738,23.9122287 12.8045647,23.3410146 13.4881089,23.2887454 C14.1809038,23.2358997 14.801525,23.7581114 14.8739735,24.5175523 Z M17.5224852,18.5447533 C18.3054973,18.5381758 18.8373667,19.1632924 18.8394733,20.1012557 L18.8408242,21.9453307 L18.8408242,21.9453307 L18.8401144,23.7894057 C18.8401144,25.018789 18.842679,26.2481723 18.8392901,27.4775556 C18.8368171,28.3858292 18.31429,28.9931705 17.5401623,28.9989759 C16.7574249,29.0046044 16.2342567,28.4125403 16.2326997,27.4958114 C16.2283949,25.021095 16.2287612,22.5462825 16.2323333,20.0716621 C16.2337987,19.1495525 16.7462508,18.5513391 17.5224852,18.5447533 Z M21.4726526,20.5452904 C22.233866,20.5470236 22.7629877,21.1373582 22.7714141,22.018056 C22.78039,22.9601508 22.7734291,23.9024378 22.7734291,24.8447248 C22.7734291,25.7390664 22.779932,26.6334079 22.7715057,27.5277494 C22.7633541,28.4075824 22.2345072,28.9978209 21.4720115,28.9987832 C20.716843,28.9998387 20.1760893,28.4000879 20.1727005,27.527269 C20.1657395,25.6908326 20.1650068,23.854108 20.1731584,22.0175756 C20.1770968,21.1407212 20.717301,20.5435647 21.4726526,20.5452904 Z M25.4024776,15.279264 C26.1864057,15.275059 26.7011475,15.863568 26.7035289,16.7875992 C26.7082,18.5748411 26.7049027,20.3620829 26.7049027,22.1494208 L26.7033457,22.1494208 C26.7033457,23.9686583 26.7097571,25.7877997 26.7000484,27.6069411 C26.6963848,28.2871134 26.305932,28.788379 25.7171846,28.9318311 C25.1225753,29.0767244 24.5211883,28.8012541 24.2650081,28.2215848 C24.1666393,27.998768 24.1174548,27.7318492 24.1168137,27.4847234 C24.107563,23.9102398 24.1068303,20.33566 24.1131501,16.7611764 C24.1146155,15.8811512 24.6506981,15.2834182 25.4024776,15.279264 Z M16.7752943,11.0032138 C20.5378558,11.0031177 24.3003256,11.0019647 28.062887,11.0038864 C29.8547748,11.0047511 30.9990221,12.2114588 30.9992053,14.0944955 C30.9996633,17.2893548 31.0010371,20.4843102 30.9985642,23.6791695 C30.9972819,25.3089311 29.776556,26.5880855 28.2179507,26.6169104 C27.9062663,26.6226754 27.7185046,26.552823 27.7494623,26.1700279 C27.7743751,25.8616972 27.6715183,25.5391463 28.1747197,25.527328 C29.329958,25.5001365 29.9687141,24.7904667 29.9706375,23.5846237 C29.9760414,20.3897644 29.9766825,17.1949051 29.9701796,14.0000458 C29.9677982,12.7935303 29.2659358,12.0623378 28.112163,12.0615692 C22.3694025,12.0576298 16.626642,12.0572454 10.8838815,12.0620496 C9.74238196,12.0629143 9.04876274,12.7820964 9.04647296,13.9625734 C9.04061113,17.2053782 9.04024477,20.448183 9.04738887,23.6909877 C9.04967865,24.7360837 9.69860143,25.4881261 10.6582011,25.5257907 C11.3047425,25.5511566 11.2636181,25.5059015 11.2621527,26.2515064 C11.2618779,26.3448992 11.2433765,26.4381959 11.2339426,26.525055 C10.0830092,26.8732602 8.64878451,26.0484828 8.1890889,24.7559729 C8.07487482,24.434671 8.01094425,24.0741672 8.0094788,23.7314387 C7.99628968,20.4567344 8.00001316,17.1819339 8.0022431,13.9071335 C8.0032506,12.2738168 9.18074548,11.017338 10.7431977,11.0070571 C12.753805,10.9937976 14.7645954,11.0033099 16.7752943,11.0032138 Z"/>
  </g>
</svg>

<svg width="39" height="39" xmlns="http://www.w3.org/2000/svg" xmlns:xlink="http://www.w3.org/1999/xlink"><defs><linearGradient x1="83.421%" y1="14.303%" x2="13.975%" y2="84.102%" id="b"><stop stop-color="#FFDF56" offset="0%"/><stop stop-color="#F3C911" offset="100%"/></linearGradient><circle id="a" cx="19.5" cy="19.5" r="19.5"/></defs><g fill="none" fill-rule="evenodd"><mask id="c" fill="#fff"><use xlink:href="#a"/></mask><use fill="url(#b)" xlink:href="#a"/><path d="M14.874 24.518c.05.521.021 1.051.024 1.578.002.494.013.99-.005 1.484-.03.861-.588 1.437-1.354 1.42-.755-.017-1.236-.58-1.241-1.458-.003-.462 0-.925 0-1.388 0-.495-.006-.99.001-1.484.01-.758.506-1.329 1.19-1.381.692-.053 1.313.47 1.385 1.229zm2.648-5.973c.783-.007 1.315.618 1.317 1.556l.002 1.844v1.844c0 1.23.002 2.46-.002 3.689-.002.908-.525 1.515-1.299 1.521-.783.006-1.306-.586-1.307-1.503-.005-2.475-.004-4.95 0-7.424 0-.922.513-1.52 1.29-1.527zm3.95 2c.762.002 1.291.592 1.3 1.473.008.942.001 1.884.001 2.827 0 .894.007 1.788-.001 2.683-.009.88-.537 1.47-1.3 1.47-.755.002-1.296-.598-1.3-1.47a669.57 669.57 0 0 1 .001-5.51c.004-.877.544-1.474 1.3-1.473zm3.93-5.266c.784-.004 1.3.585 1.302 1.509.004 1.787 0 3.574 0 5.361 0 1.82.006 3.639-.004 5.458-.004.68-.394 1.181-.983 1.325a1.24 1.24 0 0 1-1.452-.71 1.89 1.89 0 0 1-.148-.737c-.01-3.575-.01-7.15-.004-10.724.002-.88.538-1.478 1.29-1.482zm-8.627-4.276h11.288c1.792.002 2.936 1.208 2.936 3.091 0 3.195.002 6.39 0 9.585-.002 1.63-1.222 2.91-2.781 2.938-.312.006-.5-.064-.469-.447.025-.308-.077-.63.426-.643 1.155-.027 1.794-.737 1.796-1.942.005-3.195.006-6.39 0-9.585-.003-1.206-.705-1.938-1.859-1.938-5.743-.004-11.485-.005-17.228 0-1.142 0-1.835.72-1.838 1.9-.005 3.243-.006 6.486.001 9.729.003 1.045.652 1.797 1.611 1.835.647.025.606-.02.604.726 0 .093-.019.186-.028.273-1.151.348-2.585-.477-3.045-1.769a3.164 3.164 0 0 1-.18-1.025c-.013-3.274-.009-6.55-.007-9.824.001-1.633 1.179-2.89 2.741-2.9 2.01-.013 4.022-.004 6.032-.004z" fill="#3D4251" mask="url(#c)"/></g></svg>
